X:8872
T:La Chaumeilloise
R:mazurka
C:trad
A:Limousin
O:France
Z:S.Piron
M:3/4
L:1/8
Q:1/4=160
K:G
GA|:B3 c BA|G2G2 Bc|d3 c de|d2d2 GA|
B3 c BA|G2 G2 Bc|d3 c de|d4 de|d3 c Ac|B2G2 AB|A3 G FG|
A4 de|d3 c Ac|B2 G2 AB|A3 G FA|G4 GA:||


